frontend/public/svg/e-commerce/shopping-cart-3.svg

<svg width="153" height="149" viewBox="0 0 153 149" fill="none" xmlns="http://www.w3.org/2000/svg">
<path d="M60.7712 118.567C67.0218 118.567 72.8546 118.575 78.6888 118.567C92.5021 118.545 106.316 118.483 120.129 118.517C122.598 118.471 125.064 118.697 127.484 119.191C132.064 120.242 132.793 123.187 129.537 126.63C129.395 126.781 129.35 127.023 129.396 126.923C131.233 128.718 133.225 130.242 134.678 132.174C137.69 136.177 137.13 141.137 133.59 144.691C128.799 149.502 120.179 149.643 115.224 144.991C111.523 141.517 110.977 135.962 113.977 131.465C114.778 130.265 115.815 129.222 117.089 127.684C102.297 127.306 87.8414 127.027 72.5987 127.312C76.4599 130.345 78.9126 133.518 78.2976 138.062C78.0003 140.66 76.7303 143.048 74.7436 144.747C69.9845 148.803 61.7483 148.253 57.2144 143.607C53.0571 139.346 53.6971 133.41 59.1742 127.193C53.0775 126.409 51.4341 121.645 50.0722 116.924C48.7385 112.303 48.0198 107.51 46.8476 102.838C43.9039 91.106 40.6208 79.4547 37.9128 67.6702C34.7256 53.8033 32.0058 39.8287 29.072 25.9026C28.6565 23.9283 27.9563 21.9807 27.8178 19.9907C27.653 17.6647 26.3777 16.709 24.4212 16.0001C19.3588 14.1722 14.3254 12.2643 9.29914 10.3392C7.08288 9.54781 4.91352 8.63123 2.80144 7.59336C0.575141 6.43561 -0.0990266 4.67444 0.638697 2.91217C1.38102 1.13613 3.02187 0.531102 5.48576 1.27998C8.59679 2.22642 11.6796 3.26671 14.7716 4.27485C19.4611 5.80346 24.1238 7.4253 28.8468 8.84034C31.9125 9.75921 33.8653 11.4704 34.6614 14.6785C36.7663 23.1591 39.0194 31.6027 41.2161 40.0603C41.2988 40.378 41.413 40.6872 41.5784 41.2051C42.3969 41.2707 43.2632 41.413 44.1276 41.4018C49.0679 41.3362 54.0069 41.2051 58.9472 41.1486C60.1791 41.1163 61.4113 41.1989 62.6278 41.3954C63.2501 41.4797 63.8256 41.772 64.2607 42.2248C64.6958 42.6776 64.9649 43.2642 65.0243 43.8894C65.1385 44.5066 65.0188 45.1441 64.6887 45.678C64.3585 46.2118 63.8415 46.6037 63.2382 46.7772C62.0982 47.2221 60.8954 47.4847 59.6737 47.555C55.6333 47.6101 51.5909 47.5011 47.5499 47.463C46.2195 47.4499 44.8884 47.463 43.1471 47.463C46.3947 62.6461 50.2651 77.4083 54.5332 92.2914H123.586C130.008 77.0939 136.485 61.7654 143.125 46.0494C138.981 45.8846 135.294 45.76 131.609 45.5815C129.928 45.558 128.251 45.4072 126.593 45.1306C124.646 44.7368 123.681 43.4587 123.836 41.871C124.004 40.1442 125.114 39.3265 126.742 39.1303C128.29 38.8755 129.854 38.7219 131.424 38.6707C136.357 38.7271 141.303 38.722 146.218 39.0921C150.872 39.4426 152.967 42.6488 151.888 47.3121C151.49 48.9446 150.949 50.5388 150.27 52.0753C148.719 55.6773 147.041 59.2241 145.454 62.811C141.01 72.8533 136.51 82.8736 132.206 92.976C131.057 95.5232 129.453 97.8394 127.473 99.8111C126.678 100.597 125.666 101.128 124.568 101.336C122.586 101.7 120.573 101.867 118.558 101.836C101.155 101.493 83.7531 101.111 66.3523 100.691C63.8828 100.635 61.4143 100.527 58.9438 100.479C58.0801 100.463 57.2145 100.557 56.1427 100.61C57.733 106.779 59.2603 112.705 60.7712 118.567ZM123.933 140.217C125.677 140.357 127.335 139.289 127.505 137.915C127.725 136.137 125.502 133.793 123.506 133.698C122.198 133.635 120.839 135.13 120.635 136.852C120.417 138.702 121.729 140.041 123.933 140.218V140.217ZM66.4914 139.363C67.2698 138.772 68.3948 138.322 68.8201 137.506C69.4522 136.299 68.8346 135.117 67.6249 134.414C66.9587 134.01 66.2525 133.675 65.5184 133.414C64.3009 133.009 63.0822 132.812 62.412 134.345C61.7708 135.812 62.1035 137.455 63.3715 138.186C64.3797 138.659 65.4228 139.053 66.4914 139.365V139.363Z" fill="black"/>
<path d="M90.0659 14.9326C88.8779 15.9611 87.8579 16.788 86.9017 17.6826C82.7175 21.5957 78.5662 25.5469 74.3656 29.4396C73.4697 30.2692 72.4924 31.2116 71.3845 31.5496C70.8759 31.6852 70.3436 31.7045 69.827 31.6057C69.3098 31.507 68.8222 31.2929 68.3995 30.9795C67.7884 30.3586 67.6401 28.927 67.8409 27.9654C68.028 27.0676 68.8412 26.223 69.5474 25.5221C76.1594 18.9504 82.791 12.3985 89.443 5.86659C91.4461 3.88904 93.8241 3.69078 96.3089 4.58339C97.8874 5.16761 99.4121 5.88959 100.864 6.74085C106.604 10.0396 112.33 13.366 118.006 16.7731C119.244 17.5371 120.356 18.4891 121.301 19.5952C121.856 20.1699 122.207 20.9114 122.3 21.7052C122.392 22.4991 122.221 23.3011 121.812 23.988C120.954 25.468 119.389 25.6774 117.944 25.3006C116.325 24.893 114.769 24.2602 113.325 23.4204C108.796 20.717 104.358 17.8646 99.8781 15.0778C99.2218 14.6702 98.5392 14.3072 97.4753 13.6994C97.4096 15.1433 97.302 16.294 97.3118 17.4407C97.4615 35.1867 97.6453 52.9326 97.7575 70.6784C97.7732 72.3547 97.5462 74.0244 97.0834 75.6357C96.8688 76.4627 96.3805 77.1925 95.6986 77.7078C95.0166 78.223 94.1811 78.4927 93.3266 78.4731C92.5284 78.4514 91.7586 78.1744 91.1298 77.6828C90.501 77.1912 90.0462 76.5113 89.8315 75.742C89.3537 74.2528 89.1181 72.696 89.1339 71.1319C89.3879 59.5674 89.7672 48.0055 90.0455 36.4408C90.2083 29.7041 90.2601 22.9643 90.3481 16.2257C90.2916 15.7874 90.1971 15.3547 90.0659 14.9326Z" fill="black"/>
</svg>

<svg xmlns="http://www.w3.org/2000/svg" width="153" height="149" fill="none" viewBox="0 0 153 149"><path fill="#000" d="M60.771 118.567c6.25 0 12.084.008 17.918 0 13.813-.022 27.627-.084 41.44-.05 2.469-.046 4.935.18 7.355.674 4.58 1.051 5.309 3.996 2.053 7.439-.142.151-.187.393-.141.293 1.837 1.795 3.829 3.319 5.282 5.251 3.012 4.003 2.452 8.963-1.088 12.517-4.791 4.811-13.411 4.952-18.366.3-3.701-3.474-4.247-9.029-1.247-13.526.801-1.2 1.838-2.243 3.112-3.781-14.792-.378-29.248-.657-44.49-.372 3.86 3.033 6.314 6.206 5.699 10.75a10.34 10.34 0 0 1-3.554 6.685c-4.76 4.056-12.996 3.506-17.53-1.14-4.157-4.261-3.517-10.197 1.96-16.414-6.096-.784-7.74-5.548-9.102-10.269-1.334-4.621-2.052-9.414-3.224-14.086-2.944-11.732-6.227-23.383-8.935-35.168-3.187-13.867-5.907-27.841-8.841-41.767-.415-1.975-1.116-3.922-1.254-5.912-.165-2.326-1.44-3.282-3.397-3.99-5.062-1.829-10.096-3.737-15.122-5.662a62 62 0 0 1-6.498-2.746C.575 6.436-.099 4.674.64 2.913 1.38 1.135 3.022.53 5.486 1.28c3.11.946 6.194 1.987 9.286 2.995 4.69 1.528 9.352 3.15 14.075 4.565 3.066.92 5.018 2.63 5.814 5.839 2.105 8.48 4.358 16.924 6.555 25.381.083.318.197.627.362 1.145.819.066 1.685.208 2.55.197 4.94-.066 9.879-.197 14.82-.253 1.231-.033 2.463.05 3.68.246a2.78 2.78 0 0 1 2.396 2.494 2.527 2.527 0 0 1-1.786 2.888c-1.14.445-2.343.708-3.564.778-4.04.055-8.083-.054-12.124-.092-1.33-.013-2.662 0-4.403 0 3.248 15.183 7.118 29.945 11.386 44.828h69.053l19.539-46.242c-4.144-.164-7.831-.289-11.516-.468a33 33 0 0 1-5.016-.45c-1.947-.394-2.912-1.672-2.757-3.26.168-1.727 1.278-2.544 2.906-2.74a36 36 0 0 1 4.682-.46c4.933.056 9.879.051 14.794.421 4.654.35 6.749 3.557 5.67 8.22a28.5 28.5 0 0 1-1.618 4.763c-1.551 3.602-3.229 7.15-4.816 10.736-4.444 10.042-8.944 20.063-13.248 30.165a23 23 0 0 1-4.733 6.835 5.6 5.6 0 0 1-2.905 1.525 30.7 30.7 0 0 1-6.01.5q-26.104-.515-52.206-1.145c-2.47-.056-4.938-.164-7.408-.212-.864-.016-1.73.078-2.801.131zm63.162 21.65c1.744.14 3.402-.928 3.572-2.302.22-1.778-2.003-4.122-3.999-4.217-1.308-.063-2.667 1.432-2.871 3.154-.218 1.85 1.094 3.189 3.298 3.366zm-57.442-.854c.779-.591 1.904-1.041 2.33-1.857.631-1.207.014-2.389-1.196-3.092a11.5 11.5 0 0 0-2.107-1c-1.217-.405-2.436-.602-3.106.931-.641 1.467-.309 3.11.96 3.841q1.513.71 3.12 1.179z"/><path fill="#000" d="M90.066 14.933c-1.188 1.028-2.208 1.855-3.164 2.75-4.184 3.913-8.336 7.864-12.536 11.757-.896.83-1.874 1.772-2.981 2.11a3.5 3.5 0 0 1-2.986-.57c-.61-.621-.759-2.053-.558-3.015.187-.897 1-1.742 1.706-2.443A4621 4621 0 0 1 89.443 5.867c2.003-1.978 4.381-2.176 6.866-1.284a28.7 28.7 0 0 1 4.555 2.158c5.74 3.299 11.466 6.625 17.142 10.032a14 14 0 0 1 3.295 2.822 3.64 3.64 0 0 1 .511 4.393c-.858 1.48-2.423 1.69-3.868 1.313a18 18 0 0 1-4.619-1.88c-4.529-2.704-8.967-5.556-13.447-8.343-.656-.408-1.339-.77-2.403-1.379-.065 1.444-.173 2.595-.163 3.742.15 17.746.333 35.492.445 53.237a17.4 17.4 0 0 1-.674 4.958 3.79 3.79 0 0 1-3.756 2.837 3.73 3.73 0 0 1-3.495-2.731 14.6 14.6 0 0 1-.698-4.61c.254-11.565.633-23.127.912-34.691.162-6.737.214-13.477.302-20.215a7.7 7.7 0 0 0-.282-1.293"/></svg>
